X: 1648
T: the Glasgow Hornpipe   #2
%S: s:2 b:14(7+7)
B: O'Neill's 1850 #1648
O: J.O'Neill
Z: The last note of the first strain should be G2. This is a typo in the original. [fixed by JC]
M: 2/4
L: 1/16
K: G
({c}BA) \
|  GDB,D G2G-B | AGAB ({e}c2~BA) |\
[1,3 Ggfg edcB | {d}c2A2 A2 :|\
[2,4 Ggfe dcBA | B2G2 G4 :: B-c | dgfg edcB |
|    cBce dcBA | Ggfg edcB | {d}c2A2 A2B-c \
||   dBBd ecce | fdef {a}g2~f-e | dgfe dcBA | B2G2G4 :|
